svgs/light/comment-minus.svg

<svg xmlns="http://www.w3.org/2000/svg" viewBox="0 0 512 512"><!--! Font Awesome Pro 6.3.0 by @fontawesome - https://fontawesome.com License - https://fontawesome.com/license (Commercial License) Copyright 2023 Fonticons, Inc. --><path d="M256 32C114.7 32 .0281 125.1 .0281 240c0 47.63 19.92 91.25 52.91 126.3c-14.88 39.5-45.87 72.88-46.37 73.25c-6.621 7-8.373 17.25-4.623 26C5.816 474.3 14.38 480 24 480c61.49 0 109.1-25.75 139.1-46.25C192.1 442.8 223.3 448 256 448c141.4 0 255.1-93.13 255.1-208S397.4 32 256 32zM256 416c-28.24 0-56.24-4.25-83.23-12.75c-9.516-3.068-19.92-1.461-28.07 4.338c-22.99 16.25-58.55 35.29-102.7 39.66c12-15.12 29.75-40.5 40.74-69.63l.1328-.3398c4.281-11.27 1.789-23.1-6.43-32.82C47.51 313.1 32.06 277.6 32.06 240c0-97 100.5-176 223.1-176c123.5 0 223.1 79 223.1 176S379.5 416 256 416zM336 224h-160C167.2 224 160 231.2 160 240c0 8.834 7.156 15.1 16 15.1h160c8.84 0 16-7.16 16-15.1S344.8 224 336 224z"/></svg>

<svg xmlns="http://www.w3.org/2000/svg" viewBox="0 0 512 512"><!-- Font Awesome Pro 6.0.0-alpha2 by @fontawesome - https://fontawesome.com License - https://fontawesome.com/license (Commercial License) --><path d="M256.029 32C114.678 32 0.068 125.125 0.068 240C0.068 287.625 19.939 331.25 52.935 366.25C38.06 405.75 7.064 439.125 6.564 439.5C-0.057 446.5 -1.807 456.75 1.943 465.5C5.814 474.25 14.314 480 23.935 480C85.428 480 133.924 454.25 163.045 433.75C192.041 442.75 223.287 448 256.029 448C397.389 448 511.998 354.875 511.998 240S397.389 32 256.029 32ZM256.029 416C227.787 416 199.787 411.75 172.795 403.25C163.279 400.182 152.873 401.789 144.725 407.588L144.67 407.625C121.678 423.875 86.178 442.875 42.06 447.25C54.06 432.125 71.807 406.75 82.803 377.625L82.935 377.285C87.217 366.014 84.725 353.287 76.506 344.463L76.307 344.25C47.31 313.75 32.06 277.625 32.06 240C32.06 143 132.549 64 256.029 64C379.514 64 480.002 143 480.002 240S379.514 416 256.029 416ZM335.998 224.002H175.998C167.158 224.002 159.998 231.162 159.998 240C159.998 248.834 167.154 255.998 175.998 255.998H335.998C344.838 255.998 351.998 248.838 351.998 240S344.838 224.002 335.998 224.002Z"/></svg>
